X:1
T:Barragh, 88.88.88
T:Barragh, 88.88.88
T:John Chetham, A Book of Psalmody, 1718
T:Public Domain Courtesy of the Cyber Hymnal™
C:John Chetham, A Book of Psalmody, 1718
Z:Public Domain
Z:Courtesy of the Cyber Hymnal™
%%score ( 1 2 ) ( 3 4 )
L:1/8
Q:1/4=105
M:none
K:C
V:1 treble 
V:2 treble 
V:3 bass 
V:4 bass 
V:1
 [EA]2 | [CE]2 [EA]2 [E^G]2 [EA]2 | ([Dd][Ec]) (BA) [E^G]2 G2 | [CA]2 (GF) E2 [FA]2 | %4
 A2 z [CA]2 [B,E]2 x | [A,E]2 [EA]2 [E^G]2 [EA]2 | ([Dd][Ec]) (BA) [E^G]2 [EG]2 | %7
 A2 [GB]2 [Gc]2 (dc) | c2 z !fermata![Ec]2 [Gc]2 x | [Ge]2 [Gd]2 [Gc]2 B2 | [EA]2 (BA) [E^G]2 G2 | %11
 [CA]2 (GF) E2 [FA]2 | A2 z [CA]2 x |] %13
V:2
 x2 | x8 | x2 F2 x (ED) x | x2 D2 E2 x2 | E3 (^G2 D) x2 | x8 | x2 F2 x4 | (EF) x3 A2 x | %8
 G3 B2 F x2 | x6 (GF) | x2 F2 x (ED) x | x2 D2 E2 x2 | E3 (^G2 D) |] %13
V:3
 [A,C]2 | C2 C2 [E,B,]2 C2 | [F,A,]2 [D,D]2 [E,B,]2 [E,B,]2 | [F,A,]2 B,2 [C,C]2 [D,A,]2 | %4
 [E,C]2 [E,B,]2 [A,,A,]2 [^G,,B,]2 | C2 C2 [E,B,]2 C2 | [F,A,]2 [D,D]2 [E,B,]2 [E,B,]2 | %7
 [A,C]2 [G,D]2 [E,C]2 [F,F]2 | [G,E]2 [G,,D]2 !fermata![C,C]2 [C,G,]2 | %9
 [C,C]2 [G,B,]2 ([E,G,][F,A,]) [G,B,]2 | [A,C]2 (DC) [E,B,]2 [E,B,]2 | A,2 [D,B,]2 [C,C]2 (A,B,) | %12
 [E,C]2 [E,B,]2 [A,,A,]2 |] %13
V:4
 x2 | (A,,B,,) (C,D,) x (A,G,) x | x8 | x2 (E,D,) x4 | x8 | (A,,B,,) (C,D,) x (A,G,) x | x8 | x8 | %8
 x8 | x8 | x2 D,2 x4 | (F,E,) x3 D,2 x | x6 |] %13

